X:2045
T:Bonny Breast Knot
R:Reel
C:Trad.
O:England, Sussex
Z:Paul Hardy's Session Tunebook 2015 (see www.paulhardy.net). Creative Commons cc by-nc-sa licenced.
M:4/4
L:1/8
Q:1/4=160
K:G
dc|"G"B2G2 G2AB|"Am"cBAG "D"F2D2|"G"G2B2"Am"A2c2|"G"B2d2"D"d2dc|"G"B2G2 G2AB|"Am"cBAG "D"F2D2|"G"G2B2"D"A2dc|"G"B2G2 G2:|
|:Bc|"G"d3e "D"d3e|"G"dcBA G2G2|"D"AGAB "C"cBcd|"Am"e2A2 A2Bc|"G"d3e "D"d3e|"G"dcBA G2G2|"D"A2A2 D2EF|"G"G4 G2:|

